X:3303
T:Concertina Reel, The
R:reel
H:There's also a version in G, #792. Usually in D, #33
Z:id:hn-reel-793
M:C|
K:A
e2ce fece|~e2ce fece|fege fege|fege fece|
e2ce fece|~e2ce fecB|cefe ~a3f|ecBc A2cd:|
|:ea~a2 ea~a2|eaae fece|fege fege|fege fece|
ea~a2 ea~a2|eaag ~a3f|e2ce feaf|ecBc A3c:|


